assets/Woman walking/Dark/Flat/woman_walking_flat_dark.svg

<svg width="32" height="32" viewBox="0 0 32 32" fill="none" xmlns="http://www.w3.org/2000/svg">
<path d="M14.4199 12.88L15.3699 12.95C16.8899 13 17.8999 13.81 18.1199 15.27L19.3799 20.57C19.3999 20.67 19.4499 20.76 19.5099 20.84L23.5399 26.29L22.1699 27.16L18.0399 23.09C17.3199 22.4 16.7099 21.83 16.4599 21.28L15.2799 16.99L14.4199 12.88Z" fill="#636363"/>
<path d="M13.6 16.1999L12.33 20.0999C12.1 20.7499 11.97 21.46 11.86 22.45L11.3 27.6399L12.59 28.7999L14.62 21.9899L17.79 18.3899C18.31 17.7899 18.5 16.9899 18.36 16.2099L16.1179 15.6488L13.6 16.2099V16.1999Z" fill="#9B9B9B"/>
<path d="M24.25 26.8499L23.28 25.9399L21.69 26.6699L21.03 29.7199C20.98 30.0599 21.4 30.2599 21.64 30.0099L24.26 27.1999C24.35 27.0999 24.35 26.9399 24.25 26.8499Z" fill="#533566"/>
<path d="M12.1899 29.9699L12.6199 28.7099L11.3099 27.5599L8.25991 28.2099C7.91991 28.2999 7.90991 28.7699 8.23991 28.8799L11.8799 30.1199C12.0099 30.1699 12.1499 30.0999 12.1899 29.9699Z" fill="#533566"/>
<path d="M20.2425 16.6535C20.2117 16.561 20.1844 16.4663 20.1584 16.3766C20.1349 16.2952 20.1126 16.2179 20.09 16.15C18.8246 12.4777 16.2197 10.9143 15.9522 10.7537C15.9385 10.7455 15.93 10.74 15.93 10.74C15.47 10.49 15.29 9.93 15.53 9.47C15.77 9.01 16.34 8.83 16.79 9.07C16.93 9.14 20.28 10.93 21.86 15.53C21.8792 15.5853 21.899 15.6396 21.9184 15.6927C21.9621 15.8125 22.0035 15.9259 22.03 16.0303L22.3299 16.78C22.3321 16.786 22.3343 16.7921 22.3366 16.7983C22.4184 17.0232 22.5688 17.4362 22.5299 17.66C22.4799 17.93 22.0299 18.23 21.6499 18.35C21.6499 18.35 21.1699 18.5 20.7599 18.4C20.4499 18.33 20.4999 17.97 20.4999 17.97C20.4999 17.97 20.3899 17.88 20.1099 17.68C19.7465 17.4157 20.1063 16.8443 20.2425 16.6535Z" fill="#573739"/>
<path d="M15.042 10.9365C15.0942 10.4271 14.7238 9.96988 14.2144 9.91768C13.7069 9.86566 13.253 10.2335 13.1982 10.7401L13.1966 10.752C13.1947 10.7658 13.1911 10.7909 13.185 10.8265C13.1727 10.8976 13.1507 11.0102 13.1135 11.1572C13.039 11.4514 12.904 11.8814 12.6659 12.3918C12.2085 13.3724 11.3665 14.6581 9.82108 15.8537C9.61457 15.8006 8.92854 15.6608 8.80989 16.11C8.71989 16.44 8.67989 16.57 8.67989 16.57C8.67989 16.57 8.32989 16.65 8.37989 16.97C8.43989 17.38 8.74989 17.77 8.74989 17.77C8.99989 18.08 9.43989 18.38 9.69989 18.33C9.90208 18.286 10.1816 18.0489 10.3685 17.8903C10.3941 17.8685 10.4182 17.8481 10.4399 17.83L11.0102 17.278C12.7821 15.8923 13.7849 14.3793 14.3464 13.1757C14.6395 12.5473 14.8115 12.0055 14.911 11.6125C14.9608 11.4159 14.9926 11.2561 15.0125 11.1407C15.0224 11.083 15.0293 11.0363 15.034 11.0017C15.0364 10.9843 15.0382 10.97 15.0395 10.9588L15.0412 10.9443L15.0418 10.9388L15.042 10.9365Z" fill="#573739"/>
<path d="M15.8899 6.78003L16.2099 8.75003L14.1899 9.10003L13.8799 7.09003L15.8899 6.78003Z" fill="#452829"/>
<path d="M14.25 13.63C14.86 12.47 15.16 11.42 15.3 10.66C15.42 10.03 14.94 9.44003 14.3 9.41003H14.26C13.78 9.41003 13.52 9.65003 13.43 10.13C13.38 10.41 13.15 10.89 13.02 11.29C12.87 11.76 12.67 12.22 12.43 12.67C12.39 12.75 12.42 12.84 12.5 12.88L14.04 13.69C14.12 13.74 14.21 13.71 14.25 13.63Z" fill="#774AA6"/>
<path d="M15.32 8.63002C14.14 8.92002 13.43 9.33002 13.12 11.02C12.75 13.04 13.59 16.21 13.59 16.21H18.36L17.76 10.57C17.63 9.37002 16.63 8.31002 15.32 8.63002Z" fill="#8B62BF"/>
<path d="M19.35 11.09C18.45 10.1 17.56 9.46 16.88 9.06C16.32 8.72 15.59 8.97 15.34 9.57L15.32 9.61C15.17 10.08 15.36 10.59 15.79 10.84C16.05 10.99 16.36 11.19 16.69 11.46C17.09 11.77 17.46 12.12 17.8 12.5C17.86 12.57 17.96 12.57 18.03 12.51L19.34 11.32C19.41 11.26 19.41 11.16 19.35 11.09Z" fill="#A17FD5"/>
<path d="M14.8601 3.18002L13.7501 3.17002C12.8101 3.16002 12.0401 3.92002 12.0301 4.86002V5.33002C12.0301 5.48002 11.9901 5.63002 11.9101 5.76002C11.6801 6.14002 11.5701 6.18002 11.5601 6.37002C11.5401 6.67002 11.8201 6.75002 11.9501 6.76002C11.9901 6.77002 12.0201 6.80002 12.0201 6.84002C12.0401 7.89002 12.2301 8.65002 13.4901 8.66002C14.2601 8.67002 15.4801 8.29002 15.8301 7.39002L16.1601 6.17002L16.5401 4.89002C16.5501 3.95002 15.7901 3.18002 14.8601 3.18002Z" fill="#573739"/>
<path d="M13.0874 6.83235C13.1469 6.85294 13.1784 6.91783 13.1578 6.97731C13.0471 7.29708 12.692 7.46819 12.3728 7.35771C12.3134 7.33713 12.2819 7.27223 12.3024 7.21276C12.323 7.15329 12.3879 7.12176 12.4474 7.14235C12.6482 7.21187 12.8731 7.10298 12.9424 6.90276C12.963 6.84329 13.0279 6.81176 13.0874 6.83235Z" fill="#290118"/>
<path d="M13.3227 4.98508C13.2961 4.98459 13.2702 4.97586 13.2487 4.96008V4.96008C13.0539 4.83031 12.819 4.77493 12.5867 4.80408C12.5705 4.80646 12.554 4.80548 12.5383 4.8012C12.5225 4.79692 12.5077 4.78943 12.495 4.7792C12.4822 4.76898 12.4717 4.75623 12.4641 4.74175C12.4565 4.72728 12.4519 4.71139 12.4507 4.69508C12.4489 4.67899 12.4503 4.6627 12.4548 4.64714C12.4593 4.63159 12.4668 4.61708 12.477 4.60444C12.4871 4.59181 12.4996 4.58129 12.5138 4.57351C12.528 4.56573 12.5436 4.56082 12.5597 4.55908C12.8547 4.52298 13.1527 4.59588 13.3977 4.76408C13.4183 4.77968 13.4334 4.80136 13.441 4.82604C13.4486 4.85072 13.4482 4.87716 13.4399 4.90161C13.4316 4.92606 13.4158 4.94727 13.3948 4.96225C13.3737 4.97724 13.3485 4.98522 13.3227 4.98508V4.98508Z" fill="black"/>
<path d="M12.4202 5.39004C12.4202 5.39004 12.6302 5.04004 13.0602 5.12004C13.2302 5.15004 13.3502 5.25004 13.4302 5.33004C13.5102 5.40004 13.4902 5.51004 13.4102 5.57004L13.1002 5.78004L12.4202 5.39004Z" fill="black"/>
<path d="M12.4501 5.82998C12.3901 5.82998 12.3301 5.76998 12.3301 5.68998V5.67998C12.3301 5.36998 12.6001 5.18998 12.8601 5.19998C13.1201 5.20998 13.3901 5.37998 13.3801 5.68998V5.69998C13.3801 5.77998 13.3201 5.83998 13.2601 5.83998L12.4501 5.82998Z" fill="white"/>
<path d="M12.3501 5.83002C12.3401 5.78002 12.3301 5.73002 12.3301 5.68002C12.3301 5.45002 12.4801 5.27002 12.6601 5.27002C12.8401 5.27002 12.9801 5.46002 12.9801 5.68002C12.9801 5.73002 12.9701 5.78002 12.9601 5.83002H12.3501Z" fill="#7D4533"/>
<path d="M12.4602 5.82995C12.4302 5.78995 12.4202 5.73995 12.4202 5.67995C12.4202 5.54995 12.5002 5.44995 12.6102 5.44995C12.7102 5.44995 12.7902 5.55995 12.7902 5.68995C12.7902 5.74995 12.7602 5.78995 12.7402 5.82995H12.4602Z" fill="black"/>
<path d="M12.5523 5.52431C12.5526 5.48013 12.526 5.44411 12.4929 5.44385C12.4597 5.44359 12.4326 5.4792 12.4323 5.52338C12.4319 5.56757 12.4585 5.60359 12.4916 5.60385C12.5248 5.60411 12.5519 5.5685 12.5523 5.52431Z" fill="white"/>
<path d="M13.13 2.04005C12.56 1.83005 11.96 2.38005 11.8 2.96005C11.68 3.37005 11.81 3.80005 12.11 4.07005C12.2 4.16005 12.32 4.23005 12.47 4.30005C12.59 4.35005 12.72 4.39005 12.86 4.40005C13.13 4.44005 13.4 4.39005 13.63 4.29005C13.78 4.22005 13.93 4.20005 14.08 4.23005H14.09C14.27 4.26005 14.44 4.36005 14.56 4.51005C14.6602 4.63887 14.7245 4.78818 14.753 4.95064C15.1291 4.96575 15.4236 5.2699 15.4236 5.65005C15.4236 6.0317 15.1268 6.33674 14.7486 6.34963L14.74 6.83005C14.72 7.70005 15.25 8.49005 16.09 8.76005C16.13 8.77005 16.16 8.78005 16.2 8.80005C16.22 8.80505 16.2425 8.81005 16.265 8.81505C16.2875 8.82005 16.31 8.82505 16.33 8.83005C17.1 9.00005 17.94 8.54005 18.12 7.63005C18.2 7.21005 18.09 6.78005 17.81 6.45005C17.76 6.39005 17.7 6.33005 17.65 6.28005C17.41 6.07005 17.31 5.75005 17.39 5.43005C17.48 5.06005 17.54 4.58005 17.53 3.93005C17.51 2.07005 15.81 1.88005 14.66 2.21005C14.0376 2.38788 13.8399 2.31089 13.4489 2.15865C13.3562 2.12255 13.2527 2.08222 13.13 2.04005Z" fill="black"/>
</svg>

<svg xmlns="http://www.w3.org/2000/svg" width="32" height="32" fill="none"><path fill="#636363" d="m14.42 12.88.95.07c1.52.05 2.53.86 2.75 2.32l1.26 5.3c.02.1.07.19.13.27l4.03 5.45-1.37.87-4.13-4.07c-.72-.69-1.33-1.26-1.58-1.81l-1.18-4.29-.86-4.11Z"/><path fill="#9B9B9B" d="m13.6 16.2-1.27 3.9c-.23.65-.36 1.36-.47 2.35l-.56 5.19 1.29 1.16 2.03-6.81 3.17-3.6c.52-.6.71-1.4.57-2.18l-2.242-.561-2.518.56v-.01Z"/><path fill="#533566" d="m24.25 26.85-.97-.91-1.59.73-.66 3.05c-.05.34.37.54.61.29l2.62-2.81c.09-.1.09-.26-.01-.35ZM12.19 29.97l.43-1.26-1.31-1.15-3.05.65c-.34.09-.35.56-.02.67l3.64 1.24c.13.05.27-.02.31-.15Z"/><path fill="#573739" d="M20.242 16.654c-.03-.093-.058-.188-.084-.277-.023-.082-.045-.16-.068-.227-1.265-3.672-3.87-5.236-4.138-5.396a.946.946 0 0 1-.422-1.284c.24-.46.81-.64 1.26-.4.14.07 3.49 1.86 5.07 6.46l.058.163c.044.12.085.233.112.337l.3.75.007.018c.081.225.232.638.193.862-.05.27-.5.57-.88.69 0 0-.48.15-.89.05-.31-.07-.26-.43-.26-.43s-.11-.09-.39-.29c-.363-.264-.004-.836.133-1.026ZM15.042 10.937a.927.927 0 0 0-1.844-.196l-.001.011a4.457 4.457 0 0 1-.083.405c-.075.294-.21.724-.448 1.235-.457.98-1.3 2.266-2.845 3.462-.206-.053-.892-.193-1.011.256-.09.33-.13.46-.13.46s-.35.08-.3.4c.06.41.37.8.37.8.25.31.69.61.95.56.202-.044.482-.281.668-.44l.072-.06.57-.552c1.772-1.386 2.775-2.899 3.336-4.102.293-.629.466-1.17.565-1.563a6.277 6.277 0 0 0 .129-.654l.001-.015v-.005l.001-.002Z"/><path fill="#452829" d="m15.89 6.78.32 1.97-2.02.35-.31-2.01 2.01-.31Z"/><path fill="#774AA6" d="M14.25 13.63c.61-1.16.91-2.21 1.05-2.97.12-.63-.36-1.22-1-1.25h-.04c-.48 0-.74.24-.83.72-.05.28-.28.76-.41 1.16-.15.47-.35.93-.59 1.38-.04.08-.01.17.07.21l1.54.81c.08.05.17.02.21-.06Z"/><path fill="#8B62BF" d="M15.32 8.63c-1.18.29-1.89.7-2.2 2.39-.37 2.02.47 5.19.47 5.19h4.77l-.6-5.64c-.13-1.2-1.13-2.26-2.44-1.94Z"/><path fill="#A17FD5" d="M19.35 11.09c-.9-.99-1.79-1.63-2.47-2.03-.56-.34-1.29-.09-1.54.51l-.02.04c-.15.47.04.98.47 1.23.26.15.57.35.9.62.4.31.77.66 1.11 1.04.06.07.16.07.23.01l1.31-1.19c.07-.06.07-.16.01-.23Z"/><path fill="#573739" d="m14.86 3.18-1.11-.01c-.94-.01-1.71.75-1.72 1.69v.47c0 .15-.04.3-.12.43-.23.38-.34.42-.35.61-.02.3.26.38.39.39.04.01.07.04.07.08.02 1.05.21 1.81 1.47 1.82.77.01 1.99-.37 2.34-1.27l.33-1.22.38-1.28a1.69 1.69 0 0 0-1.68-1.71Z"/><path fill="#290118" d="M13.087 6.832c.06.02.091.086.07.145a.62.62 0 0 1-.784.38.114.114 0 0 1 .074-.215c.201.07.426-.039.495-.24a.114.114 0 0 1 .145-.07Z"/><path fill="#000" d="M13.323 4.985a.13.13 0 0 1-.074-.025.975.975 0 0 0-.662-.156.119.119 0 0 1-.136-.109.123.123 0 0 1 .109-.136c.295-.036.593.037.838.205a.123.123 0 0 1-.075.221ZM12.42 5.39s.21-.35.64-.27c.17.03.29.13.37.21.08.07.06.18-.02.24l-.31.21-.68-.39Z"/><path fill="#fff" d="M12.45 5.83c-.06 0-.12-.06-.12-.14v-.01c0-.31.27-.49.53-.48.26.01.53.18.52.49v.01c0 .08-.06.14-.12.14l-.81-.01Z"/><path fill="#7D4533" d="M12.35 5.83a.772.772 0 0 1-.02-.15c0-.23.15-.41.33-.41.18 0 .32.19.32.41 0 .05-.01.1-.02.15h-.61Z"/><path fill="#000" d="M12.46 5.83a.241.241 0 0 1-.04-.15c0-.13.08-.23.19-.23.1 0 .18.11.18.24 0 .06-.03.1-.05.14h-.28Z"/><path fill="#fff" d="M12.552 5.524c0-.044-.026-.08-.06-.08-.032 0-.06.035-.06.08 0 .044.027.08.06.08s.06-.035.06-.08Z"/><path fill="#000" d="M13.13 2.04c-.57-.21-1.17.34-1.33.92-.12.41.01.84.31 1.11.09.09.21.16.36.23.12.05.25.09.39.1.27.04.54-.01.77-.11.15-.07.3-.09.45-.06h.01c.18.03.35.13.47.28.1.129.165.278.193.44.376.016.67.32.67.7a.695.695 0 0 1-.674.7l-.009.48c-.02.87.51 1.66 1.35 1.93.04.01.07.02.11.04l.065.015.065.015c.77.17 1.61-.29 1.79-1.2.08-.42-.03-.85-.31-1.18-.05-.06-.11-.12-.16-.17a.842.842 0 0 1-.26-.85c.09-.37.15-.85.14-1.5-.02-1.86-1.72-2.05-2.87-1.72-.622.178-.82.1-1.211-.051-.093-.036-.196-.077-.319-.119Z"/></svg>
